X:1
T:Title
%%score { ( 1 3 ) | ( 2 4 ) }
L:1/8
M:6/8
K:F
V:1 treble nm="Grand Piano"
V:3 treble 
V:2 bass 
V:4 bass 
V:1
 z3 z2[Q:1/4=100] c | c>dc z G[CFA] | .[DB]3 z3 | [G,CE][G,DF][CEG] [=B,FA]2 [B,DG] | %4
 [CEG]3- [CEG]2 [Ec] | c>dc z G[CFA] | .[DB]3 z3 | [G,CE][A,CF][B,CG] [CEA]2 [B,EG] | [A,F]6 | %9
 [Fd]2 [E^c] def | c2 A .F3 | [EB]2 [FA] [GB][FA][EG] | [FA]2 [GB] .[Ac]3 | [Fd]2 [E^c] def | %14
 c2 A c2 [Fd] | [Fc][FA][A,F] [CFA]2 [B,EG] | [A,F]6 |] %17
V:2
 z3 z2 [F,A,F] | [F,A,F]>[F,B,F][F,A,F] A,B,F, | z2 C B,,2 =B,, | C,C,C, G,,2 G,, | %4
 C,3- C,2 [C,B,] | [F,A,F]>[F,B,F][F,A,F] A,B,F, | z2 C B,,2 =B,, | C,C,C, C,2 C, | F,6 | %9
 [B,,B,]2 [B,,B,] B,C[B,,DF] | [F,F]2- [F,CF] .[F,A,]3 | [C,C]2 [C,C] [C,C]2 [C,C] | %12
 [F,C]2 [F,C] .[F,C]3 | z3 .B,3 | [F,F]2- [F,CF] [F,A,F]2 [B,,B,] | [C,A,][C,F,]C, C,2 C, | F,6 |] %17
V:3
 x6 | z3 .F3 | F2- [FA] [B,DG]2 [G,DF] | x6 | x6 | z3 .F3 | F2- [FA] [B,DG]2 [G,DF] | x6 | x6 | %9
 z3 .F3 | x6 | x6 | x6 | z3 .F3 | x6 | x6 | x6 |] %17
V:4
 x6 | z3 .F,3 | B,,3 z3 | x6 | x6 | z3 .F,3 | B,,3 z3 | x6 | x6 | z3 .B,,3 | .A,3 z3 | x6 | x6 | %13
 [B,,B,]2 [B,,B,] B,,-[B,,C][B,,DF] | .A,3 z3 | x6 | x6 |] %17

